X:254
T:score55
L:1/8
Q:1/4=96
M:1/4
I:linebreak $
K:F
 (AC |[M:3/4] AC A,C GC | FC A,C) (FG | AC A,C GC | FC =B,C) (FG |$ AE ^CE A=B | ^cE ^CE) (cE | %7
 ^cE ^DE =BE | AE ^CE A,2) |] %9
